packages/core/src/svgs/tokens/branded/JAM.svg

<svg width="24" height="24" viewBox="0 0 24 24" fill="none" xmlns="http://www.w3.org/2000/svg">
<path d="M12.1353 2C17.3118 2 22 6.7941 22 11.9293C22 19.6647 15.8941 22 14.5882 22C12.8706 22 12.5883 19.8529 12.5883 18.9705C12.5883 18.0882 14.747 14.9411 17.047 14.9411C18.047 14.9411 18.1 15.2646 18.4706 15.5294C18.8883 14.9529 19.0471 14 19.0588 12.9118C19.1117 9.04705 15.5883 6.80587 12.1176 6.70588H11.8824C8.44705 6.70588 4.90588 9.19999 4.94116 12.9118C4.95294 14.2236 5.24118 15.3647 5.54117 15.5294C5.89411 15.2823 5.93529 14.9411 6.95293 14.9411C9.25293 14.9411 11.4117 18.0882 11.4117 18.9705C11.4117 19.8529 11.1294 22 9.4118 22C8.10587 22 2 19.6647 2 11.9293C2 6.81175 6.68235 2 11.8471 2H12.1353Z" fill="#EB2324"/>
</svg>

<svg xmlns="http://www.w3.org/2000/svg" width="24" height="24" fill="none" viewBox="0 0 24 24">
    <path fill="#EB2324" d="M12.135 2C17.312 2 22 6.794 22 11.93 22 19.664 15.894 22 14.588 22c-1.717 0-2-2.147-2-3.03 0-.882 2.159-4.029 4.459-4.029 1 0 1.053.324 1.424.588.417-.576.576-1.529.588-2.617.053-3.865-3.47-6.106-6.941-6.206h-.236c-3.435 0-6.976 2.494-6.94 6.206.01 1.312.3 2.453.6 2.617.352-.247.393-.588 1.41-.588 2.3 0 4.46 3.147 4.46 4.03 0 .882-.283 3.029-2 3.029C8.106 22 2 19.665 2 11.93 2 6.811 6.682 2 11.847 2z"/>
</svg>
